sportPriority/img/titles/search.svg

<svg viewBox="0 0 30.10889 30.1084" xmlns="http://www.w3.org/2000/svg"><g fill="#5f498a" transform="translate(45.16895 -4.90857)"><path d="m-15.4165 32.93982-7.292-7.291a12.68587 12.68587 0 0 0 2.8999-8.06006 12.69413 12.69413 0 0 0 -12.68017-12.68019 12.69413 12.69413 0 0 0 -12.68018 12.68018 12.69361 12.69361 0 0 0 12.68018 12.6792 12.6855 12.6855 0 0 0 8.06055-2.89941l7.2915 7.292a1.2066 1.2066 0 0 0 .85986.35645 1.20689 1.20689 0 0 0 .86035-.35645 1.20724 1.20724 0 0 0 .35645-.86035 1.20724 1.20724 0 0 0 -.35644-.86037zm-6.82471-15.35107a10.25881 10.25881 0 0 1 -10.24756 10.24658 10.2584 10.2584 0 0 1 -10.24707-10.24658 10.2585 10.2585 0 0 1 10.24707-10.24708 10.25892 10.25892 0 0 1 10.24756 10.24708z"/><path d="m-32.48926 11.43982a4.50971 4.50971 0 0 0 -4.50488 4.50439c0 3.748 3.49609 7.2876 3.645 7.436a1.20493 1.20493 0 0 0 .85986.35645 1.20493 1.20493 0 0 0 .85986-.35645c.14893-.14746 3.64648-3.66553 3.64648-7.436a4.51034 4.51034 0 0 0 -4.50632-4.50439zm2.07324 4.50439c0 1.80029-1.28223 3.71143-2.07617 4.72168-.791-1.01416-2.06885-2.93018-2.06885-4.72168a2.07408 2.07408 0 0 1 2.07178-2.07129 2.07471 2.07471 0 0 1 2.07326 2.07129z"/></g></svg>

<svg id="Слой_1" data-name="Слой 1" xmlns="http://www.w3.org/2000/svg" viewBox="0 0 30.10889 30.1084">
  <defs>
    <style>
      .cls-1 {
        fill: #5f498a;
      }
    </style>
  </defs>
  <title>как нас найти</title>
  <g>
    <path class="cls-1" d="M-15.4165,32.93982l-7.292-7.291a12.68587,12.68587,0,0,0,2.8999-8.06006A12.69413,12.69413,0,0,0-32.48877,4.90857,12.69413,12.69413,0,0,0-45.16895,17.58875a12.69361,12.69361,0,0,0,12.68018,12.6792,12.6855,12.6855,0,0,0,8.06055-2.89941l7.2915,7.292a1.2066,1.2066,0,0,0,.85986.35645,1.20689,1.20689,0,0,0,.86035-.35645,1.20724,1.20724,0,0,0,.35645-.86035A1.20724,1.20724,0,0,0-15.4165,32.93982Zm-6.82471-15.35107A10.25881,10.25881,0,0,1-32.48877,27.83533,10.2584,10.2584,0,0,1-42.73584,17.58875,10.2585,10.2585,0,0,1-32.48877,7.34167,10.25892,10.25892,0,0,1-22.24121,17.58875Z" transform="translate(45.16895 -4.90857)"/>
    <path class="cls-1" d="M-32.48926,11.43982a4.50971,4.50971,0,0,0-4.50488,4.50439c0,3.748,3.49609,7.2876,3.645,7.436a1.20493,1.20493,0,0,0,.85986.35645,1.20493,1.20493,0,0,0,.85986-.35645c.14893-.14746,3.64648-3.66553,3.64648-7.436A4.51034,4.51034,0,0,0-32.48926,11.43982Zm2.07324,4.50439c0,1.80029-1.28223,3.71143-2.07617,4.72168-.791-1.01416-2.06885-2.93018-2.06885-4.72168a2.07408,2.07408,0,0,1,2.07178-2.07129A2.07471,2.07471,0,0,1-30.416,15.94421Z" transform="translate(45.16895 -4.90857)"/>
  </g>
</svg>
